teeny/solid/nuxtjs.svg

<svg width="15" height="15" viewBox="0 0 15 15" fill="none" xmlns="http://www.w3.org/2000/svg">
<path fill-rule="evenodd" clip-rule="evenodd" d="M6.5 2C6.67563 2 6.83838 2.09215 6.92875 2.24275L8.45614 4.78841L9.06903 3.74649C9.15887 3.59377 9.32282 3.5 9.5 3.5C9.67718 3.5 9.84113 3.59377 9.93097 3.74649L14.931 12.2465C15.0219 12.4011 15.0231 12.5925 14.934 12.7482C14.845 12.9039 14.6794 13 14.5 13H0.5C0.319864 13 0.153653 12.9031 0.0649001 12.7463C-0.0238527 12.5896 -0.0214256 12.3972 0.0712536 12.2428L6.07125 2.24275C6.16162 2.09215 6.32437 2 6.5 2ZM5.37421 12H11.6169L8.46465 6.74625L5.37421 12ZM7.87882 5.76986L4.21403 12H1.3831L6.5 3.47183L7.87882 5.76986ZM9.04197 5.7648L12.7831 12H13.6258L9.5 4.98615L9.04197 5.7648Z" fill="black"/>
</svg>

<svg viewBox="0 0 15 15" xmlns="http://www.w3.org/2000/svg"><path fill-rule="evenodd" d="M6.5 2c.17 0 .33.09.42.24l1.52 2.54 .61-1.05c.08-.16.25-.25.43-.25 .17 0 .34.09.43.24l5 8.5c.09.15.09.34 0 .5 -.09.15-.26.25-.44.25h-14c-.19 0-.35-.1-.44-.26 -.09-.16-.09-.35 0-.51L6.02 2.19c.09-.16.25-.25.42-.25ZM5.37 12h6.24L8.45 6.74l-3.1 5.25Zm2.5-6.24L4.2 11.99H1.36l5.11-8.53 1.37 2.29Zm1.16-.01l3.74 6.23h.84L9.48 4.96l-.46.77Z"/></svg>
